icons/Cloudy Gust Weather--1504900.svg

<svg enable-background="new 0 0 16 16" viewBox="0 0 16 16" xmlns="http://www.w3.org/2000/svg"><path d="m13 11h-9.5c-1.93 0-3.5-1.57-3.5-3.5 0-1.902 1.525-3.454 3.416-3.499.787-1.81 2.583-3.001 4.584-3.001 2.409 0 4.436 1.688 4.902 4.001 1.748-.036 3.098 1.312 3.098 2.999 0 1.654-1.346 3-3 3zm-9.5-6c-1.378 0-2.5 1.122-2.5 2.5 0 1.379 1.122 2.5 2.5 2.5h9.5c1.103 0 2-.897 2-2s-.897-2-2-2c-.147 0-.297.017-.428.042-.137.024-.28-.008-.392-.091-.112-.084-.184-.211-.197-.35-.208-2.053-1.92-3.601-3.983-3.601-1.703 0-3.221 1.079-3.777 2.684-.085.245-.341.386-.594.321-.023-.005-.089-.005-.129-.005z"/><path d="m14.5 13h-13c-.276 0-.5-.224-.5-.5s.224-.5.5-.5h13c.276 0 .5.224.5.5s-.224.5-.5.5z"/><path d="m14.5 15h-13c-.276 0-.5-.224-.5-.5s.224-.5.5-.5h13c.276 0 .5.224.5.5s-.224.5-.5.5z"/></svg>

<?xml version="1.0" encoding="utf-8"?>
<!DOCTYPE svg PUBLIC "-//W3C//DTD SVG 1.0//EN" "http://www.w3.org/TR/2001/REC-SVG-20010904/DTD/svg10.dtd">
<svg    fill="#000000" xmlns="http://www.w3.org/2000/svg" xmlns:xlink="http://www.w3.org/1999/xlink" version="1.1" x="0px" y="0px" viewBox="0 0 16 16" style="enable-background:new 0 0 16 16;" xml:space="preserve"><g><path d="M13,11H3.5C1.57,11,0,9.43,0,7.5c0-1.902,1.525-3.454,3.416-3.499C4.203,2.191,5.999,1,8,1   c2.409,0,4.436,1.688,4.902,4.001C14.65,4.965,16,6.313,16,8C16,9.654,14.654,11,13,11z M3.5,5C2.122,5,1,6.122,1,7.5   C1,8.879,2.122,10,3.5,10H13c1.103,0,2-0.897,2-2c0-1.103-0.897-2-2-2c-0.147,0-0.297,0.017-0.428,0.042   c-0.137,0.024-0.28-0.008-0.392-0.091c-0.112-0.084-0.184-0.211-0.197-0.35C11.775,3.548,10.063,2,8,2   C6.297,2,4.779,3.079,4.223,4.684C4.138,4.929,3.882,5.07,3.629,5.005C3.606,5,3.54,5,3.5,5z"></path><path d="M14.5,13h-13C1.224,13,1,12.776,1,12.5S1.224,12,1.5,12h13c0.276,0,0.5,0.224,0.5,0.5S14.776,13,14.5,13z"></path><path d="M14.5,15h-13C1.224,15,1,14.776,1,14.5S1.224,14,1.5,14h13c0.276,0,0.5,0.224,0.5,0.5S14.776,15,14.5,15z"></path></g></svg>
